packages/astro-components-stencil/src/icons/edit-location.svg

<svg width="24" height="24" viewBox="0 0 24 24" fill="none" xmlns="http://www.w3.org/2000/svg">
<path fill-rule="evenodd" clip-rule="evenodd" d="M12 2.3999C8.14 2.3999 5 5.4143 5 9.1199C5 13.1231 9.42 18.6431 11.24 20.7455C11.64 21.2063 12.37 21.2063 12.77 20.7455C14.58 18.6431 19 13.1231 19 9.1199C19 5.4143 15.86 2.3999 12 2.3999ZM9.95 12.4703H8.51V11.0879L12.44 7.3247L13.87 8.6975L9.95 12.4703ZM14.59 8.0159L15.29 7.3439C15.44 7.1999 15.44 6.9695 15.29 6.8255L14.39 5.9615C14.24 5.8175 14 5.8175 13.85 5.9615L13.15 6.6335L14.59 8.0159Z" fill="black"/>
</svg>

<svg xmlns="http://www.w3.org/2000/svg" viewBox="0 0 24 24"><g xmlns="http://www.w3.org/2000/svg" id="edit-location" fill-rule="nonzero">
            <path d="M12 2.4c-3.86 0-7 3.014-7 6.72 0 4.003 4.42 9.523 6.24 11.626.4.46 1.13.46 1.53 0C14.58 18.643 19 13.123 19 9.12c0-3.706-3.14-6.72-7-6.72zM9.95 12.47H8.51v-1.382l3.93-3.763 1.43 1.373-3.92 3.772zm5.34-5.126l-.7.672-1.44-1.382.7-.672a.392.392 0 01.54 0l.9.864c.15.144.15.374 0 .518z"/>
        </g></svg>
